X: 17915
T: House Of Hamill, The
R: reel
M: 4/4
K: Edorian
|:D|EBBA BFAF|EBBc dAFD|EBBA (3Bcd ef|gfec dAF:|
|:A|BE~E2 dE~E2|BE~E2 dAFA|1 BE~E2 (3Bcd ef|gfec dAF:|2 BAGF GBef|gfec dAF||
|:A|B2^GB eBGB|BA^GB ADFA|1 B2^GB eBGB|gfec dAF:|2 BAGF GBef|gfec dAF||

